X: 1
T:Jack is Yet Alive
R:Reel
O:Shetland
M:4/4
K:G
[G,D][G,E] [G,G]B {B}[A2D2] ac | bdbG AGEG | \
DEGB A2 ce |1 BG AF G3E :|2
BG AF G2 GB ::\
[B2g2] ge f2ff | efge agfd |
[B2g2] ge f2fd | efag f2d2 | \
g2ge f2fd | [A2(e2] e)f edB2 | \
g2fg {f}[e2A2] dc | BG AF G2G2 :|
